X: 7
T: Toss The Feathers
R: reel
M: 4/4
L: 1/8
K: Dmix
|: "D"D2 ED ADED | "D"AB=cA "C"GEcE | "D"D2 F/E/D ADFA | "G"AddB "C"=cAGE |
"D"D2 FD AD FD | "D"AB=cA "C"GE E2 | "C"=cABG "Am"A2 AB |[1 "D"d2ed "C"=cAGE :|[2 "D"d2ed "C"=cAGB |
|:"D"Ad dc d2 cd | "D"edcd ed^cd | "A"eaag a3 g | "A"eaag edcd |
"A"efge afge | "D"dfed =cAAB | "C"=cABG "Am"A2 AB |[1 "D"cded "C"cAGB :|[2 "D"cded "C"cAGE |


Tune 138	Setting 12757

